X: 334
T:The dying year
M:4/4
L:1/8
Q:80
R:Air
Z: Andrew Pickering
K:G
B/2A/2|G3 B d2 B2|g3 d/2c/2 B2G2|C3 e e2 C2|f3 d/2 ^c/4d/4 e2 f2|
g3 d B2G2|e3 c A2 F2|D3 c B2 A2|B3 G/2F/2 G3:|
g/2a/2|b3 g d'3 c'/2b/2|a2 f2 d3 ^d|e2 c2 g3 f/2e/2|d2 B2 G3 A/2B/2|
c3 d e2 c2|B3 c d2 B2|A3 B/2 A/4G/4 A2 G2|F2 D2 E2 F2|
G3 b b3 c'/2d'/2|a2 f2 d3 ^d|e2 c2 g3 f/2e/2|d2 B2 G3 d|
e3 f/2 e/4f/4 g2 e2|d2B2 G3 A/2B/2|A2 F2 D3 c||B2 G G/2F/2 G4|
<end>
<start>
